X:4773
L:1/8
M:2/2
K:G
 D2 | G>A G>F B>cd>B | A>FE>F D2 AB/c/ | d>cd>e d>cB>A | B>Ad>F A2 :: AB/c/ | d>cd>e d>cB>A | 
 .B>.A .G>.F B4{Bcd} | d>cB>A B>cd>B | A>FE>F D2 :|

